static/images/iguana-tribal-vector.svg

<svg xmlns="http://www.w3.org/2000/svg" fill="none" viewBox="0 0 1556 1540"><path fill="#173775" d="M293.793 1223.96c65.234-9.14 127.033-15.76 188.042-26.84 79.137-14.35 155.051-39.63 219.45-89.67 65.831-51.16 82.956-109.409 56.763-171.822-21.942-52.302-62.942-88.756-117.13-106.525-24.552-8.063-85.155-13.157-89.008-12.229-17.014 4.082-35.166 10.82-34.684 30.457.46 21.28 20.47 24.953 37.499 25.308 39.758.802 78.961 5.736 112.634 27.366 21.528 13.849 43.143 31.343 57.059 52.272 26.162 39.345 17.863 84.663-16.31 123.203-37.295 42.07-87.807 62.6-138.044 83.19-6.095 2.5-55.932 17.53-74.691 21.73-37.518 8.4-75.255 15.9-108.425-15.25-38.936-36.54-50.06-111.98-17.793-153.98 9.728-12.688 27.625-21.836 43.591-26.562 66.381-19.707 134.602-24.657 203.658-20.053 8.63.57 17.398-.747 26.042-5.953-20.203-2.224-40.79-2.677-60.543-7.055-44.548-9.852-84.099-28.805-110.694-68.504-29.243-43.648-16.004-97.227 30.284-122.824 37.559-20.77 78.326-24.824 122.333-22.998.981-26.496 1.892-51.485 3.01-82.422-11.672 13.392-19.242 22.857-27.545 31.565-32.833 34.182-72.436 53.952-120.239 56.76-32.157 1.874-57.623-10.149-76.947-35.463-46.896-61.343-75.248-131.455-93.74-205.524-2.569-10.257 5.577-26.21 13.439-35.575 27.624-32.767 99.27-49.621 139.801-35.464 17.638 6.161 25.1 15.117 24.94 36.517-.464 54.035 2.952 108.205 6.983 162.103.823 10.937 9.588 28.053 17.643 30.004 9.843 2.38 24.72-5.937 34.141-13.668 19.05-15.589 38.276-32.108 52.78-51.677 10.483-14.139 20.95-35.419 17.822-50.633-3.189-15.242-20.96-33.405-36.444-39.116-78.935-28.927-114.808-97.097-91.275-179.809 13.494-47.338 33.615-88.893 80.449-113.257 30.967-16.1 62.316-15.538 92.974-5.69 72.402 23.262 118.783 72.536 135.232 147.596 6.256 28.588 1.428 55.6-18.587 78.582-14.733 16.945-20.897 35.707-10.974 57.461 8.995 19.739 25.38 27.525 45.988 28.89 30.183 2.002 60.291 5.359 90.462 5.63 9.728.073 24.095-5.405 27.932-12.761 3.693-7.047-.42-22.161-6.343-29.68-35.341-45.129-71.595-89.675-108.949-133.161-11.159-12.986-14.06-23.174-5.208-38.156 27.27-46.375 89.327-74.125 141.856-60.253 10.844 2.888 24.053 12.634 28.24 22.565 31.333 74.143 47.793 152.06 48.883 232.545.51 37.858-27.72 57.464-57.756 72.463-41.046 20.442-84.536 19.911-133.457 9.54a30057.54 30057.54 0 0 0 39.179 53.806c38.31-15.986 72.023-35.524 108.355-43.956 58.099-13.508 110.479 19.667 104.679 82.157-2.58 28.296-13.95 56.847-26.52 82.768-8.33 17.142-25.95 29.763-39.26 44.562-5.95 6.585-17.17 11.441-17.28 20.364-.03 2.462 2.22 5.175 4.6 5.696 5.21 1.137 10.3-3.862 14.11-7.326 54.92-49.281 115.22-90.697 181.1-124.008 36.11-18.259 69.63-15.211 93.98 16.26 16.51 21.323 29.17 47.966 35.73 74.145 9.3 37.193-4.81 68.773-38.74 89.973-67.83 42.339-140.52 72.895-219.9 83.444-45.11 6.026-90.575.588-123.208-36.734-31.929-36.503-28.633-79.405-14.682-122.211 12.678-38.825 36.456-70.361 64.83-99.468 8.39-8.633 16.82-27.343 12.91-35.639-8.29-17.796-27.473-13.343-41.969-4.959-32.483 18.841-54.443 48.19-66.011 82.582-17.275 51.304-24.693 103.604-2.049 156.725 18.799 44.14 66.788 77.313 115.389 79.987 94.51 5.245 179.17-27.525 261.19-67.466 54.92-26.714 106.77-59.723 161.12-90.572 23.78 42.806 17.35 89.338 4.58 134.989-17.54 62.778-58.35 111.528-104.29 155.128-87.34 82.91-192.6 137.59-300.96 187.63-98.816 45.63-203.16 71.65-309.561 89.11-98.303 16.14-197.51 19.84-292.992-16.05-61.288-23.03-112.712-60.07-139.74-123.1-4.462-9.99-6.668-20.94-9.734-31.01zM732.78 405.838c22.777-7.79 36.604-35.335 29.196-58.045-7.194-21.971-33.252-33.934-56.62-26.084-24.272 8.175-35.993 32.92-27.248 57.498 7.146 19.996 34.759 33.442 54.672 26.631zm-175.311-30.845c-21.343 7.376-31.983 31.579-24.298 55.057 7.535 22.92 33.799 35.881 55.864 27.531 22.607-8.546 35.168-35.637 27.467-59.16-6.239-18.893-36.922-31.081-59.033-23.428z"/></svg>

<svg xmlns="http://www.w3.org/2000/svg" width="1556" height="1540" fill="none" viewBox="0 0 1556 1540"><path fill="#173775" d="M293.793 1223.96C359.027 1214.82 420.826 1208.2 481.835 1197.12C560.972 1182.77 636.886 1157.49 701.285 1107.45C767.116 1056.29 784.241 998.041 758.048 935.628C736.106 883.326 695.106 846.872 640.918 829.103C616.366 821.04 555.763 815.946 551.91 816.874C534.896 820.956 516.744 827.694 517.226 847.331C517.686 868.611 537.696 872.284 554.725 872.639C594.483 873.441 633.686 878.375 667.359 900.005C688.887 913.854 710.502 931.348 724.418 952.277C750.58 991.622 742.281 1036.94 708.108 1075.48C670.813 1117.55 620.301 1138.08 570.064 1158.67C563.969 1161.17 514.132 1176.2 495.373 1180.4C457.855 1188.8 420.118 1196.3 386.948 1165.15C348.012 1128.61 336.888 1053.17 369.155 1011.17C378.883 998.482 396.78 989.334 412.746 984.608C479.127 964.901 547.348 959.951 616.404 964.555C625.034 965.125 633.802 963.808 642.446 958.602C622.243 956.378 601.656 955.925 581.903 951.547C537.355 941.695 497.804 922.742 471.209 883.043C441.966 839.395 455.205 785.816 501.493 760.219C539.052 739.449 579.819 735.395 623.826 737.221C624.807 710.725 625.718 685.736 626.836 654.799C615.164 668.191 607.594 677.656 599.291 686.364C566.458 720.546 526.855 740.316 479.052 743.124C446.895 744.998 421.429 732.975 402.105 707.661C355.209 646.318 326.857 576.206 308.365 502.137C305.796 491.88 313.942 475.927 321.804 466.562C349.428 433.795 421.074 416.941 461.605 431.098C479.243 437.259 486.705 446.215 486.545 467.615C486.081 521.65 489.497 575.82 493.528 629.718C494.351 640.655 503.116 657.771 511.171 659.722C521.014 662.102 535.891 653.785 545.312 646.054C564.362 630.465 583.588 613.946 598.092 594.377C608.575 580.238 619.042 558.958 615.914 543.744C612.725 528.502 594.954 510.339 579.47 504.628C500.535 475.701 464.662 407.531 488.195 324.819C501.689 277.481 521.81 235.926 568.644 211.562C599.611 195.462 630.96 196.024 661.618 205.872C734.02 229.134 780.401 278.408 796.85 353.468C803.106 382.056 798.278 409.068 778.263 432.05C763.53 448.995 757.366 467.757 767.289 489.511C776.284 509.25 792.669 517.036 813.277 518.401C843.46 520.403 873.568 523.76 903.739 524.031C913.467 524.104 927.834 518.626 931.671 511.27C935.364 504.223 931.251 489.109 925.328 481.59C889.987 436.461 853.733 391.915 816.379 348.429C805.22 335.443 802.319 325.255 811.171 310.273C838.441 263.898 900.498 236.148 953.027 250.02C963.871 252.908 977.08 262.654 981.267 272.585C1012.6 346.728 1029.06 424.645 1030.15 505.13C1030.66 542.988 1002.43 562.594 972.394 577.593C931.348 598.035 887.858 597.504 838.937 587.133C854.726 608.868 868.141 627.271 878.116 640.939C916.426 624.953 950.139 605.415 986.471 596.983C1044.57 583.475 1096.95 616.65 1091.15 679.14C1088.57 707.436 1077.2 735.987 1064.63 761.908C1056.3 779.05 1038.68 791.671 1025.37 806.47C1019.42 813.055 1008.2 817.911 1008.09 826.834C1008.06 829.296 1010.31 832.009 1012.69 832.53C1017.9 833.667 1022.99 828.668 1026.8 825.204C1081.72 775.923 1142.02 734.507 1207.9 701.196C1244.01 682.937 1277.53 685.985 1301.88 717.456C1318.39 738.779 1331.05 765.422 1337.61 791.601C1346.91 828.794 1332.8 860.374 1298.87 881.574C1231.04 923.913 1158.35 954.469 1078.97 965.018C1033.86 971.044 988.395 965.606 955.762 928.284C923.833 891.781 927.129 848.879 941.08 806.073C953.758 767.248 977.536 735.712 1005.91 706.605C1014.3 697.972 1022.73 679.262 1018.82 670.966C1010.53 653.17 991.347 657.623 976.851 666.007C944.368 684.848 922.408 714.197 910.84 748.589C893.565 799.893 886.147 852.193 908.791 905.314C927.59 949.454 975.579 982.627 1024.18 985.301C1118.69 990.546 1203.35 957.776 1285.37 917.835C1340.29 891.121 1392.14 858.112 1446.49 827.263C1470.27 870.069 1463.84 916.601 1451.07 962.252C1433.53 1025.03 1392.72 1073.78 1346.78 1117.38C1259.44 1200.29 1154.18 1254.97 1045.82 1305.01C947.004 1350.64 842.66 1376.66 736.259 1394.12C637.956 1410.26 538.749 1413.96 443.267 1378.07C381.979 1355.04 330.555 1318 303.527 1254.97C299.065 1244.98 296.859 1234.03 293.793 1223.96ZM732.78 405.838C755.557 398.048 769.384 370.503 761.976 347.793C754.782 325.822 728.724 313.859 705.356 321.709C681.084 329.884 669.363 354.629 678.108 379.207C685.254 399.203 712.867 412.649 732.78 405.838ZM557.469 374.993C536.126 382.369 525.486 406.572 533.171 430.05C540.706 452.97 566.97 465.931 589.035 457.581C611.642 449.035 624.203 421.944 616.502 398.421C610.263 379.528 579.58 367.34 557.469 374.993Z"/></svg>
